X:71
T:Last Night's Fun
M:C|
L:1/8
Q:120
R:Reel (Key of D)
K:D
"D"AD~D2 AD"G"BD | "D"ADFD "A"EFGB | "D"AD~D2 A2Bd |"G"egfe "A"dBBd :|
"D"df~f2 af~f2 | defd "A"edef | "D"df~f2 af~f2 | "G"egfe "A"dBAB |
"D"df~f2 af~f2 | defd "A"e2fg | "D"af"G"bf "D"afeg | "G"fged "A"BedB |]
